svg/charges/warhammer/blackshields-symbol.svg

<?xml version="1.0" encoding="UTF-8" standalone="no"?>
<svg
   xmlns:dc="http://purl.org/dc/elements/1.1/"
   xmlns:cc="http://creativecommons.org/ns#"
   xmlns:rdf="http://www.w3.org/1999/02/22-rdf-syntax-ns#"
   xmlns:svg="http://www.w3.org/2000/svg"
   xmlns="http://www.w3.org/2000/svg"
   xmlns:sodipodi="http://sodipodi.sourceforge.net/DTD/sodipodi-0.dtd"
   xmlns:inkscape="http://www.inkscape.org/namespaces/inkscape"
   version="1.1"
   id="Layer_2"
   x="0px"
   y="0px"
   viewBox="0 0 825.78003 941.99927"
   xml:space="preserve"
   sodipodi:docname="blackshields-symbol.svg"
   width="825.78003"
   height="941.99927"
   inkscape:version="0.92.3 (2405546, 2018-03-11)"><defs
   id="defs34" /><sodipodi:namedview
   pagecolor="#ffffff"
   bordercolor="#666666"
   borderopacity="1"
   objecttolerance="10"
   gridtolerance="10"
   guidetolerance="10"
   inkscape:pageopacity="0"
   inkscape:pageshadow="2"
   inkscape:window-width="451"
   inkscape:window-height="434"
   id="namedview32"
   showgrid="false"
   inkscape:zoom="0.236"
   inkscape:cx="408.89"
   inkscape:cy="488.99965"
   inkscape:window-x="0"
   inkscape:window-y="0"
   inkscape:window-maximized="0"
   inkscape:current-layer="Layer_2" /><metadata
   id="metadata97"><rdf:RDF><cc:Work
       rdf:about=""><dc:format>image/svg+xml</dc:format><dc:type
         rdf:resource="http://purl.org/dc/dcmitype/StillImage" /><dc:title /><dc:creator><cc:Agent><dc:title>http://bakadesign.dk/warhammer-40-000-icons/</dc:title></cc:Agent></dc:creator></cc:Work></rdf:RDF></metadata>
<g
   style="fill:#ff0000"
   id="g29"
   transform="translate(-91.11,-47.000355)">
		<g
   id="g27">
			<path
   d="M 803.71,681.79 C 829.9,633.01 844.78,577.25 844.78,518 c 0,-59.24 -14.87,-115.01 -41.07,-163.79 -15.65,13.18 -27.97,30.83 -36.79,55.5 13.49,33.46 20.93,70 20.93,108.29 0,38.29 -7.44,74.83 -20.93,108.29 8.81,24.67 21.14,42.32 36.79,55.5 z"
   id="path3"
   inkscape:connector-curvature="0" />
			<path
   d="m 632.27,261.11 c 29.49,15.44 55.98,35.8 78.4,60 1.73,-1.6 3.48,-3.17 5.29,-4.67 12.9,-10.69 27.73,-18.86 44.9,-24.6 -32.96,-38.27 -74.12,-69.25 -120.77,-90.23 -4.03,17.89 -6.63,37.68 -7.82,59.5 z"
   id="path5"
   inkscape:connector-curvature="0" />
			<path
   d="m 760.86,744.16 c -17.17,-5.74 -31.99,-13.91 -44.89,-24.61 -1.81,-1.5 -3.56,-3.07 -5.29,-4.67 -22.42,24.2 -48.92,44.56 -78.4,60 1.2,21.82 3.8,41.62 7.82,59.49 46.63,-20.96 87.8,-51.95 120.76,-90.21 z"
   id="path7"
   inkscape:connector-curvature="0" />
			<path
   d="m 498.04,228.2 c 11.82,0 23.46,0.73 34.91,2.1 1.03,-20.92 3.26,-39.69 6.75,-56.52 -13.66,-1.64 -27.56,-2.5 -41.66,-2.5 -10.11,0 -20.11,0.46 -30,1.31 3.57,16.83 5.86,35.6 6.94,56.53 7.61,-0.61 15.3,-0.92 23.06,-0.92 z"
   id="path9"
   inkscape:connector-curvature="0" />
			<path
   d="m 195.93,347.79 c -28.39,50.28 -44.61,108.35 -44.61,170.21 0,61.86 16.22,119.93 44.61,170.21 16.28,-11.36 29.46,-26.53 39.38,-47.81 -17.35,-37.19 -27.06,-78.65 -27.06,-122.4 0,-43.75 9.71,-85.21 27.06,-122.4 -9.92,-21.28 -23.1,-36.45 -39.38,-47.81 z"
   id="path11"
   inkscape:connector-curvature="0" />
			<path
   d="m 375.39,255.38 c -1.44,-21.44 -4.29,-40.87 -8.56,-58.39 -49.93,20.43 -94.03,52.16 -129.12,92.03 20.67,5.58 38.15,14.36 53.09,26.44 24.21,-24.77 52.83,-45.22 84.59,-60.08 z"
   id="path13"
   inkscape:connector-curvature="0" />
			<path
   d="m 498.04,807.8 c -7.76,0 -15.45,-0.31 -23.06,-0.91 -1.08,20.94 -3.37,39.71 -6.94,56.53 9.89,0.85 19.89,1.31 30,1.31 14.1,0 28,-0.86 41.66,-2.5 -3.49,-16.84 -5.72,-35.6 -6.75,-56.52 -11.44,1.37 -23.09,2.09 -34.91,2.09 z"
   id="path15"
   inkscape:connector-curvature="0" />
			<path
   d="m 290.81,720.55 c -14.93,12.08 -32.41,20.87 -53.08,26.45 35.09,39.86 79.18,71.59 129.11,92.01 4.27,-17.53 7.12,-36.95 8.56,-58.39 -31.77,-14.86 -60.38,-35.3 -84.59,-60.07 z"
   id="path17"
   inkscape:connector-curvature="0" />
			<path
   d="m 203.59,48.2 c 121.75,19.85 179.98,82.05 183.95,226.3 v 487 c -3.97,144.25 -62.2,206.45 -183.95,226.3 205.12,10.59 264.68,-47.64 260.71,-226.3 v -487 C 468.27,95.84 408.72,37.61 203.59,48.2 Z m 217.04,790.06 c -5.85,0 -10.59,-4.74 -10.59,-10.59 0,-5.85 4.74,-10.59 10.59,-10.59 5.85,0 10.59,4.74 10.59,10.59 -0.01,5.85 -4.75,10.59 -10.59,10.59 z m 0,-624.64 c -5.85,0 -10.59,-4.74 -10.59,-10.59 0,-5.85 4.74,-10.59 10.59,-10.59 5.85,0 10.59,4.74 10.59,10.59 -0.01,5.85 -4.75,10.59 -10.59,10.59 z"
   id="path19"
   inkscape:connector-curvature="0" />
			<path
   d="M 346.52,518 C 342.55,319.49 267.32,271.3 91.11,300.97 200.95,322.14 264.47,345.96 268.44,518 264.47,690.04 200.95,713.86 91.11,735.03 267.31,764.7 342.55,716.51 346.52,518 Z M 238,340.67 c -5.85,0 -10.59,-4.74 -10.59,-10.59 0,-5.85 4.74,-10.59 10.59,-10.59 5.85,0 10.59,4.74 10.59,10.59 0,5.85 -4.74,10.59 -10.59,10.59 z m -6.62,373.19 c -5.85,0 -10.59,-4.74 -10.59,-10.59 0,-5.85 4.74,-10.59 10.59,-10.59 5.85,0 10.59,4.74 10.59,10.59 0,5.85 -4.74,10.59 -10.59,10.59 z"
   id="path21"
   inkscape:connector-curvature="0" />
			<path
   d="m 620.46,761.5 v -487 C 624.43,130.25 682.66,68.05 804.41,48.2 599.28,37.61 539.73,95.84 543.7,274.5 v 487 C 539.73,940.16 599.28,998.39 804.41,987.8 682.66,967.95 624.43,905.75 620.46,761.5 Z m -35.73,76.76 c -5.85,0 -10.59,-4.74 -10.59,-10.59 0,-5.85 4.74,-10.59 10.59,-10.59 5.85,0 10.59,4.74 10.59,10.59 -0.01,5.85 -4.75,10.59 -10.59,10.59 z m 0,-624.64 c -5.85,0 -10.59,-4.74 -10.59,-10.59 0,-5.85 4.74,-10.59 10.59,-10.59 5.85,0 10.59,4.74 10.59,10.59 -0.01,5.85 -4.75,10.59 -10.59,10.59 z"
   id="path23"
   inkscape:connector-curvature="0" />
			<path
   d="M 739.56,518 C 743.53,345.96 807.05,322.14 916.89,300.97 740.69,271.3 665.45,319.49 661.48,518 665.45,716.51 740.68,764.7 916.89,735.03 807.05,713.86 743.53,690.04 739.56,518 Z m 27.79,-198.51 c 5.85,0 10.59,4.74 10.59,10.59 0,5.85 -4.74,10.59 -10.59,10.59 -5.85,0 -10.59,-4.74 -10.59,-10.59 0,-5.85 4.75,-10.59 10.59,-10.59 z m 6.62,394.37 c -5.85,0 -10.59,-4.74 -10.59,-10.59 0,-5.85 4.74,-10.59 10.59,-10.59 5.85,0 10.59,4.74 10.59,10.59 0,5.85 -4.74,10.59 -10.59,10.59 z"
   id="path25"
   inkscape:connector-curvature="0" />
		</g>

</g></svg>

<?xml version="1.0" encoding="utf-8"?>
<svg version="1.1" id="Layer_2" 
	 xmlns="http://www.w3.org/2000/svg"    xmlns:dc="http://purl.org/dc/elements/1.1/"
   xmlns:cc="http://creativecommons.org/ns#"
   xmlns:rdf="http://www.w3.org/1999/02/22-rdf-syntax-ns#" xmlns:xlink="http://www.w3.org/1999/xlink" x="0px" y="0px" viewBox="0 0 1000 1000"
	 style="enable-background:new 0 0 1000 1000;" xml:space="preserve"><metadata
   id="metadata97"><rdf:RDF><cc:Work
       rdf:about=""><dc:format>image/svg+xml</dc:format><dc:type
         rdf:resource="http://purl.org/dc/dcmitype/StillImage" /><dc:title></dc:title><dc:creator><cc:Agent><dc:title>http://bakadesign.dk/warhammer-40-000-icons/</dc:title></cc:Agent></dc:creator></cc:Work></rdf:RDF></metadata>
<g style="fill:#ff0000">
		<g>
			<path d="M803.71,681.79c26.19-48.78,41.07-104.54,41.07-163.79c0-59.24-14.87-115.01-41.07-163.79
				c-15.65,13.18-27.97,30.83-36.79,55.5c13.49,33.46,20.93,70,20.93,108.29s-7.44,74.83-20.93,108.29
				C775.73,650.96,788.06,668.61,803.71,681.79z"/>
			<path d="M632.27,261.11c29.49,15.44,55.98,35.8,78.4,60c1.73-1.6,3.48-3.17,5.29-4.67c12.9-10.69,27.73-18.86,44.9-24.6
				c-32.96-38.27-74.12-69.25-120.77-90.23C636.06,219.5,633.46,239.29,632.27,261.11z"/>
			<path d="M760.86,744.16c-17.17-5.74-31.99-13.91-44.89-24.61c-1.81-1.5-3.56-3.07-5.29-4.67c-22.42,24.2-48.92,44.56-78.4,60
				c1.2,21.82,3.8,41.62,7.82,59.49C686.73,813.41,727.9,782.42,760.86,744.16z"/>
			<path d="M498.04,228.2c11.82,0,23.46,0.73,34.91,2.1c1.03-20.92,3.26-39.69,6.75-56.52c-13.66-1.64-27.56-2.5-41.66-2.5
				c-10.11,0-20.11,0.46-30,1.31c3.57,16.83,5.86,35.6,6.94,56.53C482.59,228.51,490.28,228.2,498.04,228.2z"/>
			<path d="M195.93,347.79c-28.39,50.28-44.61,108.35-44.61,170.21s16.22,119.93,44.61,170.21c16.28-11.36,29.46-26.53,39.38-47.81
				c-17.35-37.19-27.06-78.65-27.06-122.4s9.71-85.21,27.06-122.4C225.39,374.32,212.21,359.15,195.93,347.79z"/>
			<path d="M375.39,255.38c-1.44-21.44-4.29-40.87-8.56-58.39c-49.93,20.43-94.03,52.16-129.12,92.03
				c20.67,5.58,38.15,14.36,53.09,26.44C315.01,290.69,343.63,270.24,375.39,255.38z"/>
			<path d="M498.04,807.8c-7.76,0-15.45-0.31-23.06-0.91c-1.08,20.94-3.37,39.71-6.94,56.53c9.89,0.85,19.89,1.31,30,1.31
				c14.1,0,28-0.86,41.66-2.5c-3.49-16.84-5.72-35.6-6.75-56.52C521.51,807.08,509.86,807.8,498.04,807.8z"/>
			<path d="M290.81,720.55c-14.93,12.08-32.41,20.87-53.08,26.45c35.09,39.86,79.18,71.59,129.11,92.01
				c4.27-17.53,7.12-36.95,8.56-58.39C343.63,765.76,315.02,745.32,290.81,720.55z"/>
			<path d="M203.59,48.2c121.75,19.85,179.98,82.05,183.95,226.3v487c-3.97,144.25-62.2,206.45-183.95,226.3
				c205.12,10.59,264.68-47.64,260.71-226.3v-487C468.27,95.84,408.72,37.61,203.59,48.2z M420.63,838.26
				c-5.85,0-10.59-4.74-10.59-10.59c0-5.85,4.74-10.59,10.59-10.59c5.85,0,10.59,4.74,10.59,10.59
				C431.21,833.52,426.47,838.26,420.63,838.26z M420.63,213.62c-5.85,0-10.59-4.74-10.59-10.59c0-5.85,4.74-10.59,10.59-10.59
				c5.85,0,10.59,4.74,10.59,10.59C431.21,208.88,426.47,213.62,420.63,213.62z"/>
			<path d="M346.52,518c-3.97-198.51-79.2-246.7-255.41-217.03C200.95,322.14,264.47,345.96,268.44,518
				c-3.97,172.04-67.49,195.86-177.33,217.03C267.31,764.7,342.55,716.51,346.52,518z M238,340.67c-5.85,0-10.59-4.74-10.59-10.59
				s4.74-10.59,10.59-10.59c5.85,0,10.59,4.74,10.59,10.59S243.85,340.67,238,340.67z M231.38,713.86
				c-5.85,0-10.59-4.74-10.59-10.59s4.74-10.59,10.59-10.59c5.85,0,10.59,4.74,10.59,10.59S237.23,713.86,231.38,713.86z"/>
			<path d="M620.46,761.5v-487c3.97-144.25,62.2-206.45,183.95-226.3C599.28,37.61,539.73,95.84,543.7,274.5v487
				c-3.97,178.66,55.58,236.89,260.71,226.3C682.66,967.95,624.43,905.75,620.46,761.5z M584.73,838.26
				c-5.85,0-10.59-4.74-10.59-10.59c0-5.85,4.74-10.59,10.59-10.59c5.85,0,10.59,4.74,10.59,10.59
				C595.31,833.52,590.57,838.26,584.73,838.26z M584.73,213.62c-5.85,0-10.59-4.74-10.59-10.59c0-5.85,4.74-10.59,10.59-10.59
				c5.85,0,10.59,4.74,10.59,10.59C595.31,208.88,590.57,213.62,584.73,213.62z"/>
			<path d="M739.56,518c3.97-172.04,67.49-195.86,177.33-217.03C740.69,271.3,665.45,319.49,661.48,518
				c3.97,198.51,79.2,246.7,255.41,217.03C807.05,713.86,743.53,690.04,739.56,518z M767.35,319.49c5.85,0,10.59,4.74,10.59,10.59
				s-4.74,10.59-10.59,10.59s-10.59-4.74-10.59-10.59S761.51,319.49,767.35,319.49z M773.97,713.86c-5.85,0-10.59-4.74-10.59-10.59
				s4.74-10.59,10.59-10.59c5.85,0,10.59,4.74,10.59,10.59S779.82,713.86,773.97,713.86z"/>
		</g>

</g></svg>
